packages/icons/svg/Outline/skip-back.svg

<svg width="24" height="24" viewBox="0 0 24 24" fill="none" xmlns="http://www.w3.org/2000/svg">
<g id="Icon/Outline/skip-back">
<path id="Mask" fill-rule="evenodd" clip-rule="evenodd" d="M15.5 15.9854L10.678 12.0024L15.5 8.09139V15.9854ZM16.45 6.20139C15.716 5.85639 14.849 5.95839 14.241 6.46139L9.141 10.6734C9.088 10.7174 9.047 10.7694 9 10.8184V7.00039C9 6.44739 8.552 6.00039 8 6.00039C7.448 6.00039 7 6.44739 7 7.00039V17.0004C7 17.5524 7.448 18.0004 8 18.0004C8.552 18.0004 9 17.5524 9 17.0004V13.1814C9.047 13.2304 9.088 13.2824 9.142 13.3264L14.241 17.5404C14.609 17.8434 15.073 18.0014 15.544 18.0014C15.851 18.0014 16.161 17.9344 16.45 17.7984C17.098 17.4934 17.5 16.8854 17.5 16.2134V7.78739C17.5 7.11439 17.098 6.50639 16.45 6.20139Z" fill="#000000"/>
</g>
</svg>

<svg fill="none" height="24" viewBox="0 0 24 24" width="24" xmlns="http://www.w3.org/2000/svg"><path clip-rule="evenodd" d="m15.5 15.9853-4.822-3.983 4.822-3.91101zm.95-9.78384c-.734-.345-1.601-.243-2.209.26l-5.1 4.21204c-.053.044-.094.096-.141.145v-3.81804c0-.553-.448-1-1-1s-1 .447-1 1v10.00004c0 .552.448 1 1 1s1-.448 1-1v-3.819c.047.049.088.101.142.145l5.099 4.214c.368.303.832.461 1.303.461.307 0 .617-.067.906-.203.648-.305 1.05-.913 1.05-1.585v-8.42604c0-.673-.402-1.281-1.05-1.586z" fill="#6b7280" fill-rule="evenodd"/></svg>
